X: 11161
T: FOR TENDERNESS FORM'D
%R: march
B: "Edinburgh Repository of Music" v.1 p.116 #1
F: http://digital.nls.uk/special-collections-of-printed-music/pageturner.cfm?id=87776133
Z: 2015 John Chambers <jc:trillian.mit.edu>
M: 2/4
L: 1/8
K: C
G |\
c2 Bd | {d}c2 zG | (c.e) (A.f) | (e2 d)G | e2 d>c |\
c2 GG | f2 (e/g/)(f/e/) | {e}d2 zd | e2 ^fg | d2 (c/e/)(c/A/) |
G2 {B}A>G | G2 zG | e2 {e}d>c | c2 GG | f2 (e/g/)(f/e/) |\
{e}d2 dg | g>BBB | ABcd | e2 d>c | c3 |]

%%sep 2 1 500
%%sep 1 1 500

